X: 0123
T: Inveraray - 8x32S
P: Inveraray
C: Carl Volti
B: Miss Milligan's Miscellany v.1 #0123
B: Originally Ours v.1 p.174 #MMM-0123
Z: 2020 John Chambers <jc:trillian.mit.edu>
M: 4/4
L: 1/8
R: strathspey
K: D
%
B |:\
"D"A<d d>e "A"f>e d>B | "D"A<d d<f "E/A7"e>d e<f |\
"D"A<d d>e "A/D"f>ed>A | "G"B<d "A7"A>G "D"F<D D>B |
"D"A<d d>e "A"f>e "G"d>B | "D"A<d d<f "E/A7"e>d e<f |\
"D"A<d d>e "A/D"f>e d>A | "G"B<d "A"A>G "D"F<D D>f ||
"D"a>f d>A "G"B<d "D"A<F | "D"a>f d>A "G#/E7"B<e "A"e2 |\
"D"a>f d>A "G"B<d "D"A<F | "G"B<d "A"A>G "D"F<D D>f |
"D"a>f d>A "G"B<d "D"A<F | "D"a>f d>A "E7"B<e "A7"e2 |\
"D"a>f d>A "G"B<d "D"A<F |1 "G"B<d "A7"A>G "D"F<D Dd :|2 "G"B<d "A7"A>G "D"F<D D2 |]
